X:1
T:Until Then
T:Until Then
T:Stewart Hamblen, 1958 Arrangement, Larry Johnson, 2011
C:Stewart Hamblen, 1958
Z:All Rights Reserved
L:1/4
Q:1/4=85
M:4/4
K:Bb
V:1 treble nm="Voice"
%%MIDI channel 5
%%MIDI program 54
V:1
 z4 | z4 | z4 | z4 | z4 | z4 | z"F7" F"F7sus4" G"Dm/F" F |"Bb" D3 F | F F"Eb/Bb" G3/2"Bb" F/ | %9
w: ||||||my heart can|sing when|I pause to re|
"Dm/F" F"F7" E3 | z E E"Bb/F" D |"F" C3 A | A"F7sus4" G"Dm/F" F"F7" E |"Bb" D4 | %14
w: mem ber|a heart ache|here is|just a step ping|stone|
 z"F7" F"F7sus4" G"Dm/F" F |"Bb" D3 F | B d"F/C" c"Bb/D" B |"Eb" G B3 | z B"A/E" A"Edim7" G | %19
w: a long a|trail that's|wind ing al ways|up ward|this troub led|
"Bb/F" F3 D |"Dm/F" F F"Cm/F" E"F7" C |"Bb" B,4 | z F"^Dm(#5)" A"Dbdim7" B |"Cm7" c3 c | %24
w: world is|not my fi nal|home|but un til|then my|
"F7" c c d3/2 c/ |"Bb" B2 F2- | F z"^Dm(#5)" A"Dbdim7" B |"Cm" c3 c |"F7" c c"Eb/F" B"F7" c | %29
w: heart will go on|sing ing|_ un til|then with|joy I'll car ry|
"Bb" d4 | z d"Dm/F" d3/2"F7" c/ |"Bb" B3"F7/Bb" c |"Bb7" d d e3/2 d/ |"Eb" c2 G2 | %34
w: on|un til the|day my|eyes be hold that|ci ty|
 z B"Ebdim7" B G |"Bb/F" F3 d |"Dm/F" d3"F7" c |"Bb" B4 | z"F7" F"F7sus4" G"Dm/F" F |"Bb" D3 F | %40
w: un til the|day God|calls me|home|the things of|earth will|
 F F"Eb/Bb" G3/2"Bb" F/ |"Dm/F" F"F7" E3 | z E E"Bb/F" D |"F" C3 A | A"F7sus4" G"Dm/F" F"F7" E | %45
w: dim and lose their|val ue|If we re|call they're|bor rowed for a|
"Bb" D4 | z"F7" F"F7sus4" G"Dm/F" F |"Bb" D3 F | B d"F/C" c"Bb/D" B |"Eb" G B3 | %50
w: while|and things of|earth that|cause the heart to|trem ble|
 z B"A/E" A"Edim7" G |"Bb/F" F3 D |"Dm/F" F F"Cm/F" E"F7" C |"Bb" B,4 | z F"^Dm(#5)" A"Dbdim7" B | %55
w: re mem bered|ther will|on ly bring a|smile|but un til|
"Cm7" c3 c |"F7" c c d3/2 c/ |"Bb" B2 F2- | F z"^Dm(#5)" A"Dbdim7" B |"Cm" c3 c | %60
w: then my|heart will go on|sing ing|_ un til|then with|
"F7" c c"Eb/F" B"F7" c |"Bb" d4 | z d"Dm/F" d3/2"F7" c/ |"Bb" B3"F7/Bb" c |"Bb7" d d e3/2 d/ | %65
w: joy I'll car ry|on|un til the|day my|eyes be hold that|
"Eb" c2 G2 | z B"Ebdim7" B G |"Bb/F" F3 d |"Dm/F" d3"F7" c |"Bb" B4 | z"F7" F"F7sus4" G"Dm/F" F | %71
w: ci ty|un til the|day God|calls me|home|this wea ry|
"Bb" D3 F | F F"Eb/Bb" G3/2"Bb" F/ |"Dm/F" F"F7" E3 | z E E"Bb/F" D |"F" C3 A | %76
w: world with|all it's toil a|strug gle|may take it's|toll of|
 A"F7sus4" G"Dm/F" F"F7" E |"Bb" D4 | z"F7" F"F7sus4" G"Dm/F" F |"Bb" D3 F | B d"F/C" c"Bb/D" B | %81
w: mis er y and|strife|the soul of|man is|like a wait ing|
"Eb" G B3 | z B"A/E" A"Edim7" G |"Bb/F" F3 D |"Dm/F" F F"Cm/F" E"F7" C |"Bb" B,4 | %86
w: fal con|when it's re|leased it's|des tined for the|sky|
 z F"^Dm(#5)" A"Dbdim7" B |"Cm7" c3 c |"F7" c c d3/2 c/ |"Bb" B2 F2- | F z"^Dm(#5)" A"Dbdim7" B | %91
w: but un til|then my|heart will go on|sing ing|_ un til|
"Cm" c3 c |"F7" c c"Eb/F" B"F7" c |"Bb" d4 | z d"Dm/F" d3/2"F7" c/ |"Bb" B3"F7/Bb" c | %96
w: then with|joy I'll car ry|on|un til the|day my|
"Bb7" d d e3/2 d/ |"Eb" c2 G2 | z B"Ebdim7" B G |"Bb/F" F3 d |"Dm/F" d3"F7" c |"Bb" B4 | z4 | z4 | %104
w: eyes be hold that|ci ty|un til the|day God|calls me|home|||
 z4 | z4 |] %106
w: ||

